X:89
T:The Warlocks
S:Sandy MacIntyre
A:Cape Breton
R:Strathspey
M:4/4
K:Em
e|:B<E{E}G>F E2 E/F/G| A>B{B}A>F D2 D/E/F|G>EF>D E<ee>f| g>e f/e/d {B}e2 ed:|
B| e/f/g B>g e<Bg>e| f/g/a d>a f<da>f| e/f/g B>g e<Bg>e |d>BA>F E2 EB|
e/f/g B>g e<Bg>e| f<a d>a f<da>f| e>gf>e d>BA>F|G>BA>F E2 E||
